X: 103
T: Magnificat octavi toni
C: Gaspar van Weerbeke
%%abc-version 2.0
%%abcx-abcm2ps-target-version 5.9.1 (29 Sep 2008)
%%abc-creator hum2abc beta
%%abcx-conversion-date 2022/03/06 13:05:58
%%abc-copyright Copyright 2018, Kolb, Paul
%%abc-edited-by Zybina, Karina
%%humdrum-veritas 947231773
%%humdrum-veritas-data 2668572270
%%linebreak <none>
%%barnumbers 0
L: 1/4
M: 3/2
N: Derived from Gas0502-Magnificat_octavi_toni.krn
%%staves [1 2 3 4]
V: 1 clef=treble
V: 2 clef=treble-8
V: 3 clef=treble-8
V: 4 clef=bass
K: C
[V:1] c2>c2c2 | 
[V:2] g2ecc2 | 
[V:3] c2>c2ef | 
[V:4] C2>C2A,2 | 
[V:1] B4c2 | 
[V:2] d2BGg2 | 
[V:3] g>fd2e2 | 
[V:4] G,4C,2 | 
[V:1] A2Bcd3/c/ | 
[V:2] c2dcAB | 
[V:3] f2gefd- | 
[V:4] F,A,G,A,D,G,- | 
[V:1] B/A/G2A2B | 
[V:2] G2c>BAG | 
[V:3] de2cd2 | 
[V:4] G,/F,/E,/D,/C,F,2G,- | 
[V:1] GA2G2^F | 
[V:2] BA2d3 | 
[V:3] BcdBA2 | 
[V:4] G,F,D,G,D,2 | 
[V:1] G4 ||  
[V:2] d4 ||  
[V:3] G4 ||  
[V:4] G,4 ||  
[V:1] [M:2/2]z4 | 
[V:2] [M:2/2]G4 | 
[V:3] [M:2/2]z4 | 
[V:4] [M:2/2]z4 | 
[V:1] z4 | 
[V:2] A4 | 
[V:3] z4 | 
[V:4] z4 | 
[V:1] G4 | 
[V:2] G>ABc- | 
[V:3] z4 | 
[V:4] z4 | 
[V:1] A4 | 
[V:2] cf2e/d/ | 
[V:3] z4 | 
[V:4] z4 | 
[V:1] G>ABc | 
[V:2] eg>fe | 
[V:3] z4 | 
[V:4] z4 | 
[V:1] Bc2B | 
[V:2] dcd2 | 
[V:3] z4 | 
[V:4] z4 | 
[V:1] c4 | 
[V:2] c4 | 
[V:3] z4 | 
[V:4] z4 | 
[V:1] c3B/A/ | 
[V:2] z2f2 | 
[V:3] z4 | 
[V:4] z4 | 
[V:1] G2c2 | 
[V:2] e2f2 | 
[V:3] z4 | 
[V:4] z4 | 
[V:1] B2c2 | 
[V:2] g3f/e/ | 
[V:3] z4 | 
[V:4] z4 | 
[V:1] d3c/B/ | 
[V:2] d2g2 | 
[V:3] z4 | 
[V:4] z4 | 
[V:1] A2d2- | 
[V:2] fd2B- | 
[V:3] z4 | 
[V:4] z4 | 
[V:1] dcBA | 
[V:2] BG2F | 
[V:3] z4 | 
[V:4] z4 | 
[V:1] GFED | 
[V:2] GA2B | 
[V:3] z4 | 
[V:4] z4 | 
[V:1] Cc2d- | 
[V:2] c>def | 
[V:3] z4 | 
[V:4] z4 | 
[V:1] dc2B | 
[V:2] ged2 | 
[V:3] z4 | 
[V:4] z4 | 
[V:1] c4 | 
[V:2] c4- | 
[V:3] z4 | 
[V:4] z4 | 
[V:1] z4 | 
[V:2] c4 | 
[V:3] z4 | 
[V:4] z4 | 
[V:1] c3d | 
[V:2] z4 | 
[V:3] z4 | 
[V:4] z4 | 
[V:1] e3d/c/ | 
[V:2] c2c/d/e/f/ | 
[V:3] z4 | 
[V:4] z4 | 
[V:1] B2G2 | 
[V:2] gG2g- | 
[V:3] z4 | 
[V:4] z4 | 
[V:1] Bc2B/A/ | 
[V:2] gef2 | 
[V:3] z4 | 
[V:4] z4 | 
[V:1] G2A2 | 
[V:2] g2zc- | 
[V:3] z4 | 
[V:4] z4 | 
[V:1] G2c2 | 
[V:2] cBA2 | 
[V:3] z4 | 
[V:4] z4 | 
[V:1] BGc2- | 
[V:2] G2ze- | 
[V:3] z4 | 
[V:4] z4 | 
[V:1] cBA2 | 
[V:2] e/f/g2f | 
[V:3] z4 | 
[V:4] z4 | 
[V:1] G2c2 | 
[V:2] ec>BA/G/ | 
[V:3] z4 | 
[V:4] z4 | 
[V:1] ABGc- | 
[V:2] dGc3/d/ | 
[V:3] z4 | 
[V:4] z4 | 
[V:1] cBAB- | 
[V:2] e/f/gfg | 
[V:3] z4 | 
[V:4] z4 | 
[V:1] BG2^F | 
[V:2] G2A2 | 
[V:3] z4 | 
[V:4] z4 | 
[V:1] G4 ||  
[V:2] G4 ||  
[V:3] z4 ||  
[V:4] z4 ||  
[V:1] [M:2/2]z4 | 
[V:2] [M:2/2]d3e | 
[V:3] [M:2/2]G4 | 
[V:4] [M:2/2]G,4 | 
[V:1] z4 | 
[V:2] f2g2 | 
[V:3] A2G2 | 
[V:4] F,2E,2 | 
[V:1] z4 | 
[V:2] fd2B | 
[V:3] AB>cd- | 
[V:4] F,G,E,F,- | 
[V:1] z4 | 
[V:2] AG2F | 
[V:3] dc2B | 
[V:4] F,E,D,2 | 
[V:1] G4 | 
[V:2] G3E | 
[V:3] c4 | 
[V:4] C,4 | 
[V:1] A2G2 | 
[V:2] F2z2 | 
[V:3] c2e2 | 
[V:4] z2C2 | 
[V:1] AB>cd- | 
[V:2] cd>ef/g/ | 
[V:3] fg2f- | 
[V:4] A,G,2D,- | 
[V:1] dc2B | 
[V:2] agfd | 
[V:3] fed2 | 
[V:4] D,E,F,G, | 
[V:1] c4 | 
[V:2] e4 | 
[V:3] c4 | 
[V:4] C,4 | 
[V:1] A4 | 
[V:2] f4 | 
[V:3] c4 | 
[V:4] F,4 | 
[V:1] G2G2 | 
[V:2] g2e2 | 
[V:3] c2c2 | 
[V:4] E,2C,2 | 
[V:1] A4 | 
[V:2] f4 | 
[V:3] c4 | 
[V:4] F,4 | 
[V:1] c4 | 
[V:2] g4- | 
[V:3] e4 | 
[V:4] C,4 | 
[V:1] B3G | 
[V:2] g4 | 
[V:3] d4 | 
[V:4] G,4 | 
[V:1] A>Bc2 | 
[V:2] z4 | 
[V:3] f2e2 | 
[V:4] F,>G,A,2 | 
[V:1] d2B3/c/ | 
[V:2] g3f | 
[V:3] d2g2- | 
[V:4] _B,2G,2- | 
[V:1] d2e2- | 
[V:2] d2c3/d/ | 
[V:3] gfed | 
[V:4] G,2C2- | 
[V:1] e4- | 
[V:2] efg2- | 
[V:3] c3B | 
[V:4] C2C,2- | 
[V:1] e2d2- | 
[V:2] g4 | 
[V:3] c2B2 | 
[V:4] C,2G,2 | 
[V:1] dcc2- | 
[V:2] f2eg- | 
[V:3] c2e2 | 
[V:4] A,2C2 | 
[V:1] c2B2 | 
[V:2] gg>fe/d/ | 
[V:3] d4 | 
[V:4] G,4 | 
[V:1] c4 | 
[V:2] e4 | 
[V:3] c4- | 
[V:4] C,4- | 
[V:1] z4 | 
[V:2] c4 | 
[V:3] c4 | 
[V:4] C,4 | 
[V:1] z4 | 
[V:2] B2c2 | 
[V:3] z4 | 
[V:4] z2F,2- | 
[V:1] z4 | 
[V:2] A2Bc- | 
[V:3] z4 | 
[V:4] F,2E,2 | 
[V:1] z4 | 
[V:2] cd2B | 
[V:3] z4 | 
[V:4] F,2D,G,- | 
[V:1] z4 | 
[V:2] A2G2 | 
[V:3] z4 | 
[V:4] G,^F,G,2 | 
[V:1] c4 | 
[V:2] A4 | 
[V:3] z4 | 
[V:4] z4 | 
[V:1] c2c2- | 
[V:2] F2A2- | 
[V:3] f4 | 
[V:4] z4 | 
[V:1] c2c2 | 
[V:2] ABc2 | 
[V:3] f2e2 | 
[V:4] z4 | 
[V:1] A2B2 | 
[V:2] d2z2 | 
[V:3] f2d2 | 
[V:4] D,2G,2 | 
[V:1] c2A2 | 
[V:2] c2d2- | 
[V:3] e2f2 | 
[V:4] E,2D,2- | 
[V:1] d3c | 
[V:2] dcBA | 
[V:3] d2g2- | 
[V:4] D,2z2 | 
[V:1] BAG2 | 
[V:2] G2c2 | 
[V:3] gfe2 | 
[V:4] G,2C,2 | 
[V:1] B2c2 | 
[V:2] B2e2 | 
[V:3] d2c2- | 
[V:4] G,2A,2- | 
[V:1] A3G/F/ | 
[V:2] c2f3/e/ | 
[V:3] c2A3/B/ | 
[V:4] A,2F,3/G,/ | 
[V:1] E2FG- | 
[V:2] c2zc- | 
[V:3] c2de- | 
[V:4] A,>G,F,E, | 
[V:1] GED2 | 
[V:2] cg3 | 
[V:3] ec2B | 
[V:4] C,2G,2 | 
[V:1] C2c2 | 
[V:2] e2ce- | 
[V:3] c4 | 
[V:4] A,C>B,A,- | 
[V:1] BGA2 | 
[V:2] e/f/gef | 
[V:3] z2c2 | 
[V:4] A,G,2F, | 
[V:1] G2F2 | 
[V:2] dcd2 | 
[V:3] BGA2 | 
[V:4] G,E,D,2 | 
[V:1] G2AB- | 
[V:2] BGz2 | 
[V:3] GBcd- | 
[V:4] zG,F,D,- | 
[V:1] BcGA- | 
[V:2] zg2f- | 
[V:3] de2c | 
[V:4] D,C,2F, | 
[V:1] AG2^F | 
[V:2] fd2d | 
[V:3] dBA2 | 
[V:4] D,G,D,2 | 
[V:1] G4 ||  
[V:2] d4 ||  
[V:3] G4 ||  
[V:4] G,4 ||  
[V:1] [M:3/2]z6 | 
[V:2] [M:3/2]g2>e2d2 | 
[V:3] [M:3/2]G2>A2B2 | 
[V:4] [M:3/2]z6 | 
[V:1] G2>A2B2 | 
[V:2] ec2B/A/G2 | 
[V:3] ce2fg2 | 
[V:4] z6 | 
[V:1] c2BcBc- | 
[V:2] A2GAGA- | 
[V:3] e2e4 | 
[V:4] z6 | 
[V:1] cB/A/GAB2- | 
[V:2] AG/F/EAG2 | 
[V:3] e>fgcBd- | 
[V:4] z6 | 
[V:1] Bd2BA2 | 
[V:2] G>ABGcd | 
[V:3] d/c/B/A/Gg2^f | 
[V:4] z6 | 
[V:1] GC>DE/F/GA | 
[V:2] e>d c/B/cBc | 
[V:3] g4z2 | 
[V:4] z6 | 
[V:1] B2zdce | 
[V:2] d>cABc3/B/ | 
[V:3] G2FGA2 | 
[V:4] z6 | 
[V:1] d/c/B/A/Gc2B | 
[V:2] G>FGEFG | 
[V:3] B/c/decd2 | 
[V:4] z6 | 
[V:1] c2z2c2 | 
[V:2] A4EA- | 
[V:3] c2c>d e/f/e | 
[V:4] z6 | 
[V:1] c>dedcA | 
[V:2] A2>A2A2 | 
[V:3] ce2fef | 
[V:4] z6 | 
[V:1] B2>A2Bc | 
[V:2] G>A B/c/dGA | 
[V:3] g2>f2gc | 
[V:4] z6 | 
[V:1] BG2c2B | 
[V:2] Bc2FG2 | 
[V:3] de2fd2 | 
[V:4] z6 | 
[V:1] c4z2 | 
[V:2] z2g3e- | 
[V:3] c4z2 | 
[V:4] z6 | 
[V:1] z2z2c2- | 
[V:2] ecc2c/B/A/G/ | 
[V:3] g3e2c | 
[V:4] z6 | 
[V:1] cA2FF2 | 
[V:2] F4z2 | 
[V:3] c2f>e d/c/d | 
[V:4] z6 | 
[V:1] A2GFE2 | 
[V:2] F2GDA2 | 
[V:3] cABd2^c | 
[V:4] z6 | 
[V:1] DFGAB3/c/ | 
[V:2] zd2efg- | 
[V:3] d2BcdG- | 
[V:4] z6 | 
[V:1] d2GABc | 
[V:2] gGcAGA | 
[V:3] Gdefge | 
[V:4] z6 | 
[V:1] Ad2BA3/B/ | 
[V:2] FG>AB/G/d2 | 
[V:3] fd2g2f | 
[V:4] z6 | 
[V:1] cB2G2^F | 
[V:2] efg/f/e/d/ d/^c/^c/B/ | 
[V:3] edG2A2 | 
[V:4] z6 | 
[V:1] G4 ||  
[V:2] d4 ||  
[V:3] G4 ||  
[V:4] z4 ||  
[V:1] [M:3/2]z2z2G2 | 
[V:2] [M:3/2]B2cdBe- | 
[V:3] [M:3/2]G2A2Gc- | 
[V:4] [M:3/2]G,2F,D,E,C, | 
[V:1] A2Gc2d | 
[V:2] eABGA3/B/ | 
[V:3] cde2f2 | 
[V:4] F,2E,2zD, | 
[V:1] e>dBc2B | 
[V:2] c>BGg3 | 
[V:3] eg>fed2 | 
[V:4] C,>D,E,C,G,2 | 
[V:1] c4c2 | 
[V:2] e2z2a2 | 
[V:3] c4f2 | 
[V:4] A,4F,2 | 
[V:1] cc2ccc | 
[V:2] ga2a3 | 
[V:3] ec2cAA | 
[V:4] C,F,2F,F,F, | 
[V:1] B2B>cde | 
[V:2] d2d/c/B/A/Gg | 
[V:3] G2zg2e | 
[V:4] G,2G,2zC | 
[V:1] d2BcdB | 
[V:2] fd2cG2 | 
[V:3] fg2edg- | 
[V:4] DB,G,CB,G, | 
[V:1] A2Gc2B | 
[V:2] d2efg2 | 
[V:3] gfecd2 | 
[V:4] D,2zA,G,2 | 
[V:1] c2z2c2 | 
[V:2] e2cfec | 
[V:3] c4z2 | 
[V:4] C,2F,2A,2 | 
[V:1] AAG2Ac | 
[V:2] f2g2z2 | 
[V:3] z2c2AA | 
[V:4] F,F,E,C,F,2 | 
[V:1] BdcB/A/G2 | 
[V:2] g2efde | 
[V:3] G2AcBc- | 
[V:4] G,2zF,G,E, | 
[V:1] AcB>GAB | 
[V:2] cfdefg- | 
[V:3] cB/A/G2d2 | 
[V:4] F,2G,E,D,G, | 
[V:1] cB>AG2^F | 
[V:2] gGABd2 | 
[V:3] ed2BA2 | 
[V:4] C,G,F,G,D,2 | 
[V:1] G4 ||  
[V:2] d4 ||  
[V:3] G4 ||  
[V:4] G,4 ||  
[V:1] [M:2/2]z4 | 
[V:2] [M:2/2]G2G3/A/ | 
[V:3] [M:2/2]z4 | 
[V:4] [M:2/2]z4 | 
[V:1] z4 | 
[V:2] B/c/B2A/G/ | 
[V:3] G4- | 
[V:4] z4 | 
[V:1] z4 | 
[V:2] B/c/d/e/de- | 
[V:3] G4 | 
[V:4] z4 | 
[V:1] z4 | 
[V:2] e/d/g2f | 
[V:3] AGA2 | 
[V:4] z4 | 
[V:1] z4 | 
[V:2] ed/c/B2 | 
[V:3] G4 | 
[V:4] z4 | 
[V:1] E>FGA- | 
[V:2] z4 | 
[V:3] c4 | 
[V:4] C,>D,E,F,- | 
[V:1] A/G/A/B/cA- | 
[V:2] z4 | 
[V:3] c4- | 
[V:4] F,/E,/F,/G,/A,F,- | 
[V:1] AG/F/E2 | 
[V:2] z2zg | 
[V:3] c2c2 | 
[V:4] F,E,/D,/C,2 | 
[V:1] z4 | 
[V:2] egag | 
[V:3] c4 | 
[V:4] zE,F,E, | 
[V:1] zGEG | 
[V:2] e2z2 | 
[V:3] z4 | 
[V:4] C,2zE, | 
[V:1] AGE2 | 
[V:2] z4 | 
[V:3] c4- | 
[V:4] F,E,A,3/G,/ | 
[V:1] G>A B/c/d | 
[V:2] z4 | 
[V:3] c2B2 | 
[V:4] E,>F,G,2 | 
[V:1] G2z2 | 
[V:2] e>fga- | 
[V:3] c4 | 
[V:4] z4 | 
[V:1] z4 | 
[V:2] a/g/f/e/f2 | 
[V:3] d4- | 
[V:4] z2D,3/E,/ | 
[V:1] ABAd- | 
[V:2] z4 | 
[V:3] d2d2 | 
[V:4] F,G,F,G, | 
[V:1] d/c/B/A/B2 | 
[V:2] z2G3/A/ | 
[V:3] d4- | 
[V:4] D,2z2 | 
[V:1] z4 | 
[V:2] Bc2B | 
[V:3] d4 | 
[V:4] z2G,2 | 
[V:1] z4 | 
[V:2] c2de- | 
[V:3] z4 | 
[V:4] E,F,>E,C,- | 
[V:1] z2c2 | 
[V:2] efed/c/ | 
[V:3] z4 | 
[V:4] C,D,C,E, | 
[V:1] de2f | 
[V:2] BcA3/B/ | 
[V:3] z4 | 
[V:4] D,C,2D, | 
[V:1] ed/c/B2 | 
[V:2] cG>AB | 
[V:3] c2de- | 
[V:4] C,2G,2 | 
[V:1] cd2e- | 
[V:2] GAGg- | 
[V:3] efg2- | 
[V:4] E,D,G,C, | 
[V:1] e/d/c2B | 
[V:2] g2g2 | 
[V:3] ged2 | 
[V:4] C2G,2 | 
[V:1] c4 | 
[V:2] e2c2 | 
[V:3] c4- | 
[V:4] C,2F,2 | 
[V:1] z2c2 | 
[V:2] GA2G/F/ | 
[V:3] c4 | 
[V:4] E,F,2E,/D,/ | 
[V:1] c4 | 
[V:2] G2F/G/A/B/ | 
[V:3] z2f2 | 
[V:4] C,2z2 | 
[V:1] c2c2 | 
[V:2] cAF2 | 
[V:3] ef2e/d/ | 
[V:4] z4 | 
[V:1] c4 | 
[V:2] z2zf- | 
[V:3] c4 | 
[V:4] F,2E,F,- | 
[V:1] c4 | 
[V:2] fefa- | 
[V:3] c2A2 | 
[V:4] F,/G,/A,F,C- | 
[V:1] z4 | 
[V:2] a/g/f2e | 
[V:3] Fc2B | 
[V:4] CA,G,2 | 
[V:1] c4- | 
[V:2] f2c3/d/ | 
[V:3] c2z2 | 
[V:4] F,4 | 
[V:1] c2c2 | 
[V:2] efg2 | 
[V:3] g3f/e/ | 
[V:4] C,4 | 
[V:1] B4- | 
[V:2] zg2f/e/ | 
[V:3] d2zg- | 
[V:4] G,4- | 
[V:1] B4 | 
[V:2] d2g2 | 
[V:3] gf/e/d2 | 
[V:4] G,4 | 
[V:1] c4 | 
[V:2] e2f3/e/ | 
[V:3] c4 | 
[V:4] A,2F,2- | 
[V:1] A4 | 
[V:2] cf>ga | 
[V:3] c2d3/c/ | 
[V:4] F,2D,2 | 
[V:1] B2GA- | 
[V:2] d2z2 | 
[V:3] B/A/G2c- | 
[V:4] G,2E,F,- | 
[V:1] AFGE | 
[V:2] A>Bc2 | 
[V:3] cde2 | 
[V:4] F,D,C,2 | 
[V:1] FA2c | 
[V:2] A2z2 | 
[V:3] d>cA2 | 
[V:4] D,>E,F,2 | 
[V:1] BA>GF/E/ | 
[V:2] d3A | 
[V:3] GAd2 | 
[V:4] G,D,>E,F, | 
[V:1] DG2^F | 
[V:2] Bcd2 | 
[V:3] BGA2 | 
[V:4] G,E,D,2 | 
[V:1] G8 ||  
[V:2] d8 ||  
[V:3] G8 ||  
[V:4] G,8 ||  
[V:1] [M:2/2]z4 | 
[V:2] [M:2/2]G4 | 
[V:3] [M:2/2]z4 | 
[V:4] [M:2/2]z4 | 
[V:1] z4 | 
[V:2] A4 | 
[V:3] z4 | 
[V:4] z4 | 
[V:1] G4 | 
[V:2] G>ABc- | 
[V:3] z4 | 
[V:4] z4 | 
[V:1] A4 | 
[V:2] cd>cd | 
[V:3] z4 | 
[V:4] z4 | 
[V:1] G>ABc- | 
[V:2] e2de | 
[V:3] z4 | 
[V:4] z4 | 
[V:1] cd>cd | 
[V:2] f/e/d/c<BA/ | 
[V:3] z4 | 
[V:4] z4 | 
[V:1] e2de | 
[V:2] cefg | 
[V:3] z4 | 
[V:4] z4 | 
[V:1] f/e/d/c<BA/ | 
[V:2] a/g/f/e/d2 | 
[V:3] z4 | 
[V:4] z4 | 
[V:1] c2z2 | 
[V:2] c4- | 
[V:3] z4 | 
[V:4] z4 | 
[V:1] G2A2 | 
[V:2] c4 | 
[V:3] z4 | 
[V:4] z4 | 
[V:1] GE2D/C/ | 
[V:2] z2g2 | 
[V:3] z4 | 
[V:4] z4 | 
[V:1] F2EG- | 
[V:2] a2ge- | 
[V:3] z4 | 
[V:4] z4 | 
[V:1] GF/E/D2 | 
[V:2] ed/c/f2 | 
[V:3] z4 | 
[V:4] z4 | 
[V:1] CE2C- | 
[V:2] eg2f/e/ | 
[V:3] z4 | 
[V:4] z4 | 
[V:1] CB,C2 | 
[V:2] d2ce- | 
[V:3] z4 | 
[V:4] z4 | 
[V:1] zGAB | 
[V:2] ec2B | 
[V:3] z4 | 
[V:4] z4 | 
[V:1] Gc2B | 
[V:2] c2d2 | 
[V:3] z4 | 
[V:4] z4 | 
[V:1] ce2d- | 
[V:2] c>BcG | 
[V:3] z4 | 
[V:4] z4 | 
[V:1] dc2B | 
[V:2] c2d2 | 
[V:3] z4 | 
[V:4] z4 | 
[V:1] c4 | 
[V:2] c2ef- | 
[V:3] z4 | 
[V:4] z4 | 
[V:1] z2c2- | 
[V:2] fe/d/c2 | 
[V:3] z4 | 
[V:4] z4 | 
[V:1] cA2G/F/ | 
[V:2] z4 | 
[V:3] z4 | 
[V:4] z4 | 
[V:1] E>FEF | 
[V:2] c3A- | 
[V:3] z4 | 
[V:4] z4 | 
[V:1] EA2G- | 
[V:2] AG/F<EF/ | 
[V:3] z4 | 
[V:4] z4 | 
[V:1] G/F/G2E | 
[V:2] G/A/BGc- | 
[V:3] z4 | 
[V:4] z4 | 
[V:1] D2z2 | 
[V:2] cBc2 | 
[V:3] z4 | 
[V:4] z4 | 
[V:1] C>D E/F/G- | 
[V:2] z2c3/d/ | 
[V:3] z4 | 
[V:4] z4 | 
[V:1] G/A/Bcd- | 
[V:2] e/f/gaf | 
[V:3] z4 | 
[V:4] z4 | 
[V:1] dedB | 
[V:2] g2zG | 
[V:3] z4 | 
[V:4] z4 | 
[V:1] cd>cB/A/ | 
[V:2] AFGd | 
[V:3] z4 | 
[V:4] z4 | 
[V:1] GEFD- | 
[V:2] ecd2 | 
[V:3] z4 | 
[V:4] z4 | 
[V:1] DG2^F | 
[V:2] BGA2 | 
[V:3] z4 | 
[V:4] z4 | 
[V:1] G4 ||  
[V:2] G4 ||  
[V:3] z4 ||  
[V:4] z4 ||  
[V:1] [M:3/2]z6 | 
[V:2] [M:3/2]g2ag2e | 
[V:3] [M:3/2]z6 | 
[V:4] [M:3/2]z2z2G,2 | 
[V:1] z6 | 
[V:2] fge>dcB- | 
[V:3] z2G2AG- | 
[V:4] A,G,2E,F,G, | 
[V:1] z2z2G2 | 
[V:2] Bef2e2 | 
[V:3] Gc2Bce | 
[V:4] E,C,D,2C,2 | 
[V:1] AG2c2B | 
[V:2] decAGg- | 
[V:3] fgecd2 | 
[V:4] z2C,2G,2 | 
[V:1] c2e2e3/d//c// | 
[V:2] g2e2zc | 
[V:3] c4ef | 
[V:4] C,2zC2A, | 
[V:1] B>cd3e | 
[V:2] d2d2z2 | 
[V:3] g4g2 | 
[V:4] G,2G,>A,B,C | 
[V:1] dBdBA2 | 
[V:2] d2BGd2 | 
[V:3] g2dg2^f | 
[V:4] B,G,G,2D,2 | 
[V:1] B4GA- | 
[V:2] G/A/B/c/dGz2 | 
[V:3] g4ec | 
[V:4] zG,2E,2F, | 
[V:1] ABc2d2 | 
[V:2] F2GA_B3/c/ | 
[V:3] d2e2f2- | 
[V:4] D,2C,2_B,,2 | 
[V:1] d/c/_B/A/G2EG- | 
[V:2] d2zc>de/f/ | 
[V:3] fde2g3/f/ | 
[V:4] _B,,2C,2C,3/D,/ | 
[V:1] GA>Bc2B | 
[V:2] gfag3 | 
[V:3] e/d/cfed2 | 
[V:4] E,F,2C,G,2 | 
[V:1] c6 | 
[V:2] e>fgage- | 
[V:3] c4z2 | 
[V:4] C,6 | 
[V:1] z6 | 
[V:2] ea2ga2 | 
[V:3] c2c_BAd- | 
[V:4] z2z2F,2 | 
[V:1] z6 | 
[V:2] z6 | 
[V:3] dcdBA2 | 
[V:4] F,E,D,G,2^F, | 
[V:1] z2z2c2 | 
[V:2] z2f2e2 | 
[V:3] Gc2Bc2 | 
[V:4] G,E,D,2C,2 | 
[V:1] B2A2Gc- | 
[V:2] dg2^fge | 
[V:3] z6 | 
[V:4] G,2D,2E,C, | 
[V:1] cBc2B2 | 
[V:2] d2c2G2 | 
[V:3] g2g2ge- | 
[V:4] G,2C,>D, E,/F,/G, | 
[V:1] c2Ad>cB/A/ | 
[V:2] zc2ABG- | 
[V:3] ef2d2e- | 
[V:4] A,2F,2G,2 | 
[V:1] Gc>BA/G<FG/ | 
[V:2] GGAFAd- | 
[V:3] ec2d2B- | 
[V:4] E,2F,2D,2 | 
[V:1] _BA2G2^F | 
[V:2] d/e/f2d3 | 
[V:3] BcdBA2 | 
[V:4] G,F,D,G,D,2 | 
[V:1] G4 ||  
[V:2] d4 ||  
[V:3] G4 ||  
[V:4] G,4 ||  
[V:1] [M:2/2]z4 | 
[V:2] [M:2/2]G2G3/A/ | 
[V:3] [M:2/2]z4 | 
[V:4] [M:2/2]z4 | 
[V:1] G2G3/A/ | 
[V:2] BcGc | 
[V:3] z4 | 
[V:4] z4 | 
[V:1] BcGc | 
[V:2] Be2d/c/ | 
[V:3] z4 | 
[V:4] z4 | 
[V:1] Be2d/c/ | 
[V:2] dc2B/A/ | 
[V:3] z4 | 
[V:4] z4 | 
[V:1] dc2B/A/ | 
[V:2] GAEF | 
[V:3] z4 | 
[V:4] z4 | 
[V:1] GAEF | 
[V:2] Gc2d | 
[V:3] z4 | 
[V:4] z4 | 
[V:1] GAB2 | 
[V:2] ec2d- | 
[V:3] z4 | 
[V:4] C,F,E,D, | 
[V:1] GABc | 
[V:2] d/e/fge- | 
[V:3] z4 | 
[V:4] G,F,E,A, | 
[V:1] d2GA | 
[V:2] efgc | 
[V:3] z4 | 
[V:4] G,F,_B,A, | 
[V:1] Bcde- | 
[V:2] defg- | 
[V:3] z4 | 
[V:4] G,CF,E, | 
[V:1] ec2B | 
[V:2] ged2 | 
[V:3] z4 | 
[V:4] C,2G,2 | 
[V:1] c2z2 | 
[V:2] c4 | 
[V:3] z4 | 
[V:4] A,>B,C2 | 
[V:1] c2Ad- | 
[V:2] z2f2 | 
[V:3] z4 | 
[V:4] F,2z2 | 
[V:1] d/c/dBG | 
[V:2] dg>fg | 
[V:3] z4 | 
[V:4] z4 | 
[V:1] z4 | 
[V:2] ec2d- | 
[V:3] z4 | 
[V:4] A,>G,A,F, | 
[V:1] z2G3/F/ | 
[V:2] d/c/dBG- | 
[V:3] z4 | 
[V:4] D,2z2 | 
[V:1] GECz | 
[V:2] Gc>de/f/ | 
[V:3] z4 | 
[V:4] z4 | 
[V:1] C>D E/F/G/A/ | 
[V:2] gag2- | 
[V:3] z4 | 
[V:4] zC,>D,E,/F,/ | 
[V:1] Bc2B | 
[V:2] gcd2 | 
[V:3] z4 | 
[V:4] G,A,G,2 | 
[V:1] c4 | 
[V:2] c4 | 
[V:3] z4 | 
[V:4] z2zA,- | 
[V:1] zd2B | 
[V:2] z2g2 | 
[V:3] z4 | 
[V:4] A,F,G,2 | 
[V:1] c2Ad | 
[V:2] ef2d | 
[V:3] z4 | 
[V:4] C,zz2 | 
[V:1] dBc2 | 
[V:2] ggef- | 
[V:3] z4 | 
[V:4] z4 | 
[V:1] AAB2 | 
[V:2] fdd2 | 
[V:3] z4 | 
[V:4] z2G,2 | 
[V:1] (3:2:5c2B c G A | 
[V:2] (3:2:5e2dc>B A | 
[V:3] z4 | 
[V:4] (3:2:4C,2D,E,2F, | 
[V:1] (3:2:4B2Ad2c | 
[V:2] (3:2:5G2AB>c e | 
[V:3] z4 | 
[V:4] (3:2:5G, E, F,G,2C, | 
[V:1] (3:2:5B>A GG2^F | 
[V:2] (3:2:4d2B cA2 | 
[V:3] z4 | 
[V:4] (3G,2>C,2D,2 | 
[V:1] G8 ||  
[V:2] G8 ||  
[V:3] z8 ||  
[V:4] G,8 ||  
[V:1] [M:2/2]G4- | 
[V:2] [M:2/2]G4 | 
[V:3] [M:2/2]G4- | 
[V:4] [M:2/2]G,4 | 
[V:1] G4 | 
[V:2] B2c2 | 
[V:3] G4 | 
[V:4] E,4 | 
[V:1] F4 | 
[V:2] d4 | 
[V:3] A4 | 
[V:4] D,4 | 
[V:1] G4 | 
[V:2] B2e2- | 
[V:3] G4 | 
[V:4] E,4 | 
[V:1] G2A2 | 
[V:2] e2f2 | 
[V:3] c4 | 
[V:4] C,2F,2 | 
[V:1] G2c2- | 
[V:2] g2e2 | 
[V:3] c4- | 
[V:4] E,2C,2 | 
[V:1] c2A2- | 
[V:2] a3g | 
[V:3] c2c2 | 
[V:4] F,3G, | 
[V:1] ABc2 | 
[V:2] e3f | 
[V:3] c4 | 
[V:4] A,2A,2 | 
[V:1] d4 | 
[V:2] g4- | 
[V:3] B4 | 
[V:4] G,4 | 
[V:1] e4 | 
[V:2] g4 | 
[V:3] c4 | 
[V:4] E,4 | 
[V:1] f2d2- | 
[V:2] f2g2 | 
[V:3] d4 | 
[V:4] D,2G,2 | 
[V:1] dcB2 | 
[V:2] a2gG | 
[V:3] d3e | 
[V:4] F,2G,2 | 
[V:1] A2G2 | 
[V:2] A>Bc2 | 
[V:3] f2g2- | 
[V:4] D,2E,2 | 
[V:1] A4 | 
[V:2] d4 | 
[V:3] g2^f2 | 
[V:4] D,4 | 
[V:1] G2B2- | 
[V:2] G3A | 
[V:3] g4- | 
[V:4] z2G,2- | 
[V:1] B2c2 | 
[V:2] B2G2 | 
[V:3] g4 | 
[V:4] G,2E,2 | 
[V:1] d4 | 
[V:2] A3B | 
[V:3] f4 | 
[V:4] D,4 | 
[V:1] e4- | 
[V:2] c4 | 
[V:3] e2g2- | 
[V:4] C,4- | 
[V:1] e4 | 
[V:2] G2A2 | 
[V:3] g2c2 | 
[V:4] C,4 | 
[V:1] d4 | 
[V:2] _B4 | 
[V:3] f4 | 
[V:4] _B,,4 | 
[V:1] G2c2- | 
[V:2] z2G2- | 
[V:3] e2c2 | 
[V:4] C,4 | 
[V:1] c2B2 | 
[V:2] G2g2- | 
[V:3] d4 | 
[V:4] G,4 | 
[V:1] c4- | 
[V:2] g2e2 | 
[V:3] c4- | 
[V:4] C,4- | 
[V:1] c4 | 
[V:2] e3d | 
[V:3] c4 | 
[V:4] C,4 | 
[V:1] z4 | 
[V:2] cB/A/Gc | 
[V:3] z4 | 
[V:4] C,2E,2 | 
[V:1] z4 | 
[V:2] AdBe- | 
[V:3] z4 | 
[V:4] F,2G,2- | 
[V:1] z4 | 
[V:2] ed/c/d2 | 
[V:3] z4 | 
[V:4] G,A,B,2 | 
[V:1] G4 | 
[V:2] e4 | 
[V:3] c2e2 | 
[V:4] C4 | 
[V:1] A2B2 | 
[V:2] c2d2 | 
[V:3] f2g2- | 
[V:4] A,2G,2 | 
[V:1] G2c2- | 
[V:2] e3f/g/ | 
[V:3] g2e2 | 
[V:4] C4 | 
[V:1] c2B2 | 
[V:2] a2g2- | 
[V:3] f2d2 | 
[V:4] F,2G,2 | 
[V:1] c2A2 | 
[V:2] g2^f2 | 
[V:3] z4 | 
[V:4] A,4 | 
[V:1] B2G2 | 
[V:2] g4 | 
[V:3] B>ced- | 
[V:4] G,2G,2- | 
[V:1] z4 | 
[V:2] z4 | 
[V:3] dBA2 | 
[V:4] G,2^F,2 | 
[V:1] B>ced- | 
[V:2] d2cB- | 
[V:3] G2g2- | 
[V:4] G,2C,G,- | 
[V:1] dc/B/A2 | 
[V:2] BGd2 | 
[V:3] g2^f2 | 
[V:4] G,G,D,2 | 
[V:1] G2z2 | 
[V:2] d4 | 
[V:3] g2f2 | 
[V:4] G,2D,2 | 
[V:1] c2B2 | 
[V:2] z4 | 
[V:3] e2dg | 
[V:4] A,2zG, | 
[V:1] AdcA | 
[V:2] z2c2 | 
[V:3] fdef | 
[V:4] DB,A,2 | 
[V:1] B>cd3/c/ | 
[V:2] d2B2 | 
[V:3] g>fd3/e/ | 
[V:4] G,4 | 
[V:1] A>Bc3/B/ | 
[V:2] c2A2 | 
[V:3] f>ec3/d/ | 
[V:4] F,4 | 
[V:1] Gc>BA | 
[V:2] BcA2 | 
[V:3] e2cd | 
[V:4] E,C,F,2 | 
[V:1] BG2^F | 
[V:2] dcd2 | 
[V:3] BcA2 | 
[V:4] G,E,D,2 | 
[V:1] G8 ||  
[V:2] d8 ||  
[V:3] G8 ||  
[V:4] G,8 ||  
[V:1] [M:2/2]z4 | 
[V:2] [M:2/2]g3f/e/ | 
[V:3] [M:2/2]z4 | 
[V:4] [M:2/2]G,4 | 
[V:1] z4 | 
[V:2] fe2d/c/ | 
[V:3] z4 | 
[V:4] A,4 | 
[V:1] G4 | 
[V:2] B3c | 
[V:3] g4 | 
[V:4] G,3F,/E,/ | 
[V:1] A2G2- | 
[V:2] d2Gg- | 
[V:3] f2e2 | 
[V:4] D,2z2 | 
[V:1] G2c2- | 
[V:2] ggg2 | 
[V:3] c4 | 
[V:4] E,2C,2 | 
[V:1] c2B2 | 
[V:2] z2g2 | 
[V:3] d4 | 
[V:4] G,4 | 
[V:1] ce2d/c/ | 
[V:2] e3f | 
[V:3] c3B/A/ | 
[V:4] A,>B,C2 | 
[V:1] B2GB- | 
[V:2] g2zG- | 
[V:3] G4 | 
[V:4] D2B,2 | 
[V:1] Bd2c/B/ | 
[V:2] G/A<Bc/d- | 
[V:3] g4 | 
[V:4] G,4 | 
[V:1] A2B2 | 
[V:2] dcd3/e/ | 
[V:3] f2g2 | 
[V:4] A,2G,2 | 
[V:1] c4 | 
[V:2] f4 | 
[V:3] a4 | 
[V:4] F,4 | 
[V:1] B2e2- | 
[V:2] z4 | 
[V:3] g4- | 
[V:4] G,F,E,D, | 
[V:1] edBc | 
[V:2] e>fg2 | 
[V:3] g4 | 
[V:4] C,2E,2 | 
[V:1] d2c2 | 
[V:2] a4 | 
[V:3] f2e2 | 
[V:4] D,2A,2 | 
[V:1] d2B2 | 
[V:2] f2g2 | 
[V:3] d2g2- | 
[V:4] _B,2G,2 | 
[V:1] A2c2 | 
[V:2] c4 | 
[V:3] ge^f2 | 
[V:4] A,4 | 
[V:1] B>cde | 
[V:2] d2Gg- | 
[V:3] g4- | 
[V:4] G,>A,B,C | 
[V:1] de2d/c/ | 
[V:2] ge>fg- | 
[V:3] g3f/e/ | 
[V:4] B,C2C, | 
[V:1] B>ced- | 
[V:2] g3g- | 
[V:3] d2cB | 
[V:4] G,2C,G, | 
[V:1] dc2B | 
[V:2] gfg2 | 
[V:3] c2d2 | 
[V:4] A,2G,2 | 
[V:1] c4 | 
[V:2] e>fea- | 
[V:3] c4- | 
[V:4] A,4- | 
[V:1] z2c2 | 
[V:2] ag2^f | 
[V:3] c4 | 
[V:4] A,4 | 
[V:1] B2A3/G/ | 
[V:2] g2a2- | 
[V:3] d>ef2 | 
[V:4] G,2F,2 | 
[V:1] FEC/D/E/F/ | 
[V:2] agfe- | 
[V:3] c4 | 
[V:4] A,4 | 
[V:1] GABc | 
[V:2] ed2^c | 
[V:3] BA2G | 
[V:4] G,F,E,2 | 
[V:1] F>GAB | 
[V:2] d2z2 | 
[V:3] Adcg | 
[V:4] D,>E,F,G, | 
[V:1] cd2^c | 
[V:2] z4 | 
[V:3] fde2 | 
[V:4] A,_B,A,2 | 
[V:1] d4 | 
[V:2] A3_B | 
[V:3] d4- | 
[V:4] D,>E,F,G, | 
[V:1] zD>EF/G/ | 
[V:2] A_B2A/G/ | 
[V:3] d4 | 
[V:4] F,G,2F,/E,/ | 
[V:1] AG2^F | 
[V:2] FGA2 | 
[V:3] z2d2 | 
[V:4] D,E,D,2 | 
[V:1] GB2c | 
[V:2] B>cde | 
[V:3] d3c | 
[V:4] G,2z2 | 
[V:1] dBc3/d/ | 
[V:2] dg2^f | 
[V:3] B2A2 | 
[V:4] z4 | 
[V:1] B2A2 | 
[V:2] gGd2 | 
[V:3] Gg2^f | 
[V:4] z4 | 
[V:1] zB2c- | 
[V:2] z4 | 
[V:3] g3e | 
[V:4] G,2E,A,- | 
[V:1] cd>cB/A/ | 
[V:2] a>g f/e/d- | 
[V:3] f2d2 | 
[V:4] A,D,2G,- | 
[V:1] GA>Bc/d/ | 
[V:2] df>ga | 
[V:3] BcA2 | 
[V:4] G,F,>E,F, | 
[V:1] Bd2B- | 
[V:2] d2zd | 
[V:3] G>A B/c/d | 
[V:4] G,2D,2 | 
[V:1] B/A/G2^F | 
[V:2] Bcd2 | 
[V:3] G2A2 | 
[V:4] E,2D,2 | 
[V:1] G8 ||  
[V:2] d8 ||  
[V:3] G8 ||  
[V:4] G,8 ||  
[V:1] [M:3/2]z6 | 
[V:2] [M:3/2]g6 | 
[V:3] [M:3/2]z6 | 
[V:4] [M:3/2]G,6- | 
[V:1] z6 | 
[V:2] e2f4 | 
[V:3] z6 | 
[V:4] G,2A,4 | 
[V:1] G6 | 
[V:2] g2G2B2 | 
[V:3] G6- | 
[V:4] G,4E,2- | 
[V:1] E2F4 | 
[V:2] c2d4 | 
[V:3] G2A4 | 
[V:4] E,2D,4 | 
[V:1] G6 | 
[V:2] B4z2 | 
[V:3] G6 | 
[V:4] E,2>F,2G,2 | 
[V:1] A4G2 | 
[V:2] A2>B2cd | 
[V:3] c6 | 
[V:4] F,4E,2 | 
[V:1] c2>B2A2 | 
[V:2] e4A2 | 
[V:3] c4d2 | 
[V:4] C,4F,2 | 
[V:1] G2>A2B2 | 
[V:2] B4G2- | 
[V:3] e2d3c | 
[V:4] E,2G,3F, | 
[V:1] c2F3D | 
[V:2] G2A2F2 | 
[V:3] c4B2 | 
[V:4] E,2D,4 | 
[V:1] E2G3F | 
[V:2] G2>A2B2 | 
[V:3] c4z2 | 
[V:4] C,4z2 | 
[V:1] E2D4 | 
[V:2] c4f2 | 
[V:3] z6 | 
[V:4] z6 | 
[V:1] c2B2d2 | 
[V:2] e2g3f | 
[V:3] z6 | 
[V:4] C2G,2B,2 | 
[V:1] c4B2 | 
[V:2] e2d4 | 
[V:3] z2z2d2 | 
[V:4] C2G,4 | 
[V:1] e2d3c | 
[V:2] c2G2B2 | 
[V:3] e2g3f | 
[V:4] C,2G,2E,2 | 
[V:1] c4B2 | 
[V:2] c2G4 | 
[V:3] e2d4 | 
[V:4] C,2z2z2 | 
[V:1] c6 | 
[V:2] g2g2g2 | 
[V:3] c4z2 | 
[V:4] C,6- | 
[V:1] z6 | 
[V:2] e4c2 | 
[V:3] g2g2g2 | 
[V:4] C,6 | 
[V:1] z6 | 
[V:2] c4z2 | 
[V:3] e4c2 | 
[V:4] z6 | 
[V:1] z6 | 
[V:2] g2>f2ed | 
[V:3] e6 | 
[V:4] C2C2C2 | 
[V:1] c2c2c2 | 
[V:2] c6- | 
[V:3] e4f2- | 
[V:4] A,4F,2 | 
[V:1] A2>G2F2 | 
[V:2] c2A2B2 | 
[V:3] fec2d2 | 
[V:4] F,2>E,2D,2 | 
[V:1] E6 | 
[V:2] c4g2- | 
[V:3] G6 | 
[V:4] C,2>D,2E,F, | 
[V:1] B4B2 | 
[V:2] g2d4 | 
[V:3] G6 | 
[V:4] G,2>A,2B,2 | 
[V:1] d2e3d | 
[V:2] d2c3d | 
[V:3] g4g2 | 
[V:4] G,2C,4 | 
[V:1] cBA2d2- | 
[V:2] e2d3c | 
[V:3] e2f4 | 
[V:4] C,2D,4 | 
[V:1] dcBAG2 | 
[V:2] BAG4 | 
[V:3] g6 | 
[V:4] G,4E,2 | 
[V:1] c4B2 | 
[V:2] g6 | 
[V:3] e2d4 | 
[V:4] C,2G,4 | 
[V:1] c6 | 
[V:2] e4c2 | 
[V:3] c6 | 
[V:4] C,6 | 
[V:1] z6 | 
[V:2] z6 | 
[V:3] z6 | 
[V:4] E,4F,2 | 
[V:1] z6 | 
[V:2] B4c2 | 
[V:3] z6 | 
[V:4] G,4E,2 | 
[V:1] z6 | 
[V:2] d4B2 | 
[V:3] z6 | 
[V:4] D,2G,4 | 
[V:1] z6 | 
[V:2] A2d3c | 
[V:3] z6 | 
[V:4] F,2D,2G,2 | 
[V:1] z6 | 
[V:2] c4B2 | 
[V:3] z6 | 
[V:4] E,2D,4 | 
[V:1] z6 | 
[V:2] c4z2 | 
[V:3] e4f2 | 
[V:4] C,4z2 | 
[V:1] B4c2 | 
[V:2] z6 | 
[V:3] g4e2 | 
[V:4] z6 | 
[V:1] d4B2 | 
[V:2] z6 | 
[V:3] d2g4 | 
[V:4] z6 | 
[V:1] A2d3c | 
[V:2] z6 | 
[V:3] f2d4 | 
[V:4] z6 | 
[V:1] B2A4 | 
[V:2] d4d2 | 
[V:3] g4^f2 | 
[V:4] G,2D,4 | 
[V:1] G4z2 | 
[V:2] B4G2- | 
[V:3] g6- | 
[V:4] G,4E,2- | 
[V:1] z2G4 | 
[V:2] G2c4 | 
[V:3] g2e4 | 
[V:4] E,2C,4 | 
[V:1] B4c2 | 
[V:2] B2G4 | 
[V:3] d4e2 | 
[V:4] G,4E,2 | 
[V:1] d2>c2d2 | 
[V:2] A6 | 
[V:3] f4d2 | 
[V:4] D,6 | 
[V:1] e4d2 | 
[V:2] z6 | 
[V:3] c4d2 | 
[V:4] A,4B,2 | 
[V:1] d4c2 | 
[V:2] a4a2 | 
[V:3] f2e4 | 
[V:4] D2A,4 | 
[V:1] B2A3G | 
[V:2] f2d2A2- | 
[V:3] d4c2 | 
[V:4] D,2>E,2F,2 | 
[V:1] FED4 | 
[V:2] A2B2d2 | 
[V:3] d4B2 | 
[V:4] D,2G,4 | 
[V:1] G2>^F2FE | 
[V:2] e2d4 | 
[V:3] c2A4 | 
[V:4] C,2D,4 | 
[V:1] G4 |]  
[V:2] d4 |]  
[V:3] G4 |]  
[V:4] G,4 |]  


